polaris-icons/icons/new-icons/NavigationMajor.svg

<svg width="20" height="20" viewBox="0 0 20 20" fill="none" xmlns="http://www.w3.org/2000/svg">
<path fill-rule="evenodd" clip-rule="evenodd" d="M13.2803 6.71969C13.4744 6.91376 13.547 7.19834 13.4695 7.46164L12.2195 11.7116C12.1476 11.9563 11.9562 12.1476 11.7116 12.2195L7.46161 13.4695C7.19831 13.547 6.91373 13.4744 6.71966 13.2803C6.52559 13.0863 6.45302 12.8017 6.53046 12.5384L7.78046 8.28839C7.85241 8.04376 8.04373 7.85245 8.28836 7.78049L12.5384 6.53049C12.8017 6.45305 13.0862 6.52562 13.2803 6.71969ZM9.10408 9.10411L8.35749 11.6425L10.8959 10.8959L9.10408 9.10411Z" fill="#4A4A4A"/>
<path fill-rule="evenodd" clip-rule="evenodd" d="M3 10C3 6.13401 6.13401 3 10 3C13.866 3 17 6.13401 17 10C17 13.866 13.866 17 10 17C6.13401 17 3 13.866 3 10ZM10 4.5C6.96243 4.5 4.5 6.96243 4.5 10C4.5 13.0376 6.96243 15.5 10 15.5C13.0376 15.5 15.5 13.0376 15.5 10C15.5 6.96243 13.0376 4.5 10 4.5Z" fill="#4A4A4A"/>
</svg>

<svg viewBox="0 0 20 20" xmlns="http://www.w3.org/2000/svg"><path fill-rule="evenodd" d="M13.28 6.72a.75.75 0 0 1 .19.742l-1.25 4.25a.75.75 0 0 1-.508.508l-4.25 1.25a.75.75 0 0 1-.932-.932l1.25-4.25a.75.75 0 0 1 .508-.508l4.25-1.25a.75.75 0 0 1 .742.19Zm-4.176 2.384-.747 2.539 2.539-.747-1.792-1.792Z" fill="#5C5F62"/><path fill-rule="evenodd" d="M3 10a7 7 0 1 1 14 0 7 7 0 0 1-14 0Zm7-5.5a5.5 5.5 0 1 0 0 11 5.5 5.5 0 0 0 0-11Z" fill="#5C5F62"/></svg>
